btcd/img/main/btcd-logo-light.svg

<svg width="497" height="300" viewBox="0 0 497 300" fill="none" xmlns="http://www.w3.org/2000/svg">
<path d="M42.5719 108.559C42.5719 115.752 38.7973 119.348 31.2483 119.348L28.3812 119.178V77.2056H33.7869C37.0493 77.2056 39.3336 78.3297 40.6215 80.5704C41.9187 82.826 42.5719 86.1353 42.5719 90.5223V108.559ZM28.3812 22.2519H34.4624C38.6266 22.2519 40.7069 24.6093 40.7069 29.3278V43.8223C40.7069 47.1945 40.2578 49.8075 39.3559 51.6667C38.4559 53.5186 36.7691 54.4426 34.2917 54.4426H28.3812V22.2519ZM54.7268 64.2241C64.6381 61.526 69.5929 53.263 69.5929 39.4426V33.0334C69.5929 21.3537 67.2009 12.9204 62.4168 7.75002C57.6328 2.57964 49.9427 0 39.3559 0H0V144.802H21.8566C27.3866 137.882 32.3655 133.867 37.0641 132.548C38.2388 132.222 39.4413 132.059 40.6456 132.059C42.4327 132.059 44.2272 132.424 45.9734 133.145C48.2578 134.083 50.5867 135.478 53.0956 137.408C55.7214 139.439 56.5676 139.872 56.653 139.911L56.7012 139.935L56.7384 139.958C56.9573 140.067 57.167 140.176 57.3767 140.3C60.2568 138.424 62.5801 135.959 64.3579 132.913C68.9731 124.991 71.2871 113.333 71.2871 97.9408C71.2871 88.5001 70.0438 80.9112 67.5664 75.1834C65.0891 69.4482 60.8098 65.7964 54.7268 64.2241Z" fill="white"/>
<path d="M78.7129 144.802H120.012C122.708 138.709 125.429 133.091 128.111 128.06C130.839 122.952 133.101 119.232 135.073 116.65H107.799V83.4379H134.73V56.1327H107.799V27.9811H135.891V0H78.7129V144.802Z" fill="white"/>
<path d="M158.953 115.796C159.394 115.998 159.772 116.176 160.095 116.339C161.184 116.888 162.202 117.655 163.237 118.703C163.506 118.973 163.753 119.26 163.993 119.554C164.34 118.888 164.688 118.236 165.035 117.594C168.694 110.797 171.527 106.474 173.95 103.986C175.355 102.46 177.068 101.407 179.06 100.848C179.879 100.616 180.766 100.5 181.692 100.5C183.46 100.5 185.467 100.918 187.829 101.794V27.803H204.95V0H141.832V27.803H158.953V115.796Z" fill="white"/>
<path d="M226.527 144.802H255.403V27.8108H272.525V0H209.406V27.8108H226.527V144.802Z" fill="white"/>
<path d="M338.614 116.65H308.495V83.4379H335.606V56.1308H308.495V27.9811H336.775V0H279.208V144.802H338.614V116.65Z" fill="white"/>
<path d="M382.316 53.6049H375.435V26.8015H382.153C383.829 26.8015 385.119 27.1663 386.015 27.896C386.91 28.6311 387.529 29.9496 387.861 31.857C388.2 33.77 388.363 36.6385 388.363 40.4514C388.363 49.2179 386.348 53.6049 382.316 53.6049ZM413.396 59.6734C415.519 55.0623 416.584 48.6605 416.584 40.4514C416.584 31.4681 415.912 24.0738 414.569 18.285C413.224 12.5017 410.622 8.00731 406.76 4.8055C402.898 1.59628 397.438 0 390.38 0H346.04V144.802H375.265V78.7176C379.404 78.7176 382.262 79.2842 383.829 80.4083C385.397 81.5324 386.185 84.112 386.185 88.1582V144.802H414.399L414.739 90.01C414.739 84.0583 413.757 79.3379 411.796 75.8584C409.834 72.3695 406.675 70.1843 402.304 69.277C407.572 67.4862 411.262 64.277 413.396 59.6734Z" fill="white"/>
<path d="M212.3 164.493C207.143 158.794 199.414 155.941 189.1 155.941H184.076C182.691 157.437 181.3 158.855 179.91 160.189C176.901 163.089 173.894 165.688 170.933 167.94C169.264 175.396 169.179 179.653 169.458 181.989C170.717 181.35 172.697 179.968 175.488 176.993C178.704 173.575 181.733 168.857 184.501 162.965L184.523 162.905L184.555 162.851C185.761 160.429 187.431 158.91 189.525 158.325C190.214 158.131 190.903 158.032 191.59 158.032C196.854 158.039 198.679 163.067 199.111 164.609C199.863 167.284 199.645 169.952 198.487 172.319C196.128 177.571 193.539 182.151 190.748 186.015C191.102 187.603 191.289 189.762 191.289 192.5V266.796C191.289 271.939 188.653 274.508 183.388 274.508H178.34V198.106C176.207 199.462 174.103 200.427 172.016 201.013C170.431 201.452 168.878 201.677 167.402 201.677C165.051 201.677 162.864 201.12 160.93 200.033C160.807 199.963 160.166 199.648 157.266 198.353C155.851 197.728 154.606 197.095 153.517 196.463C152.148 198.36 150.726 200.087 149.257 201.629V300H188.095C199.746 300 208.102 296.422 213.142 289.267C218.19 282.111 220.648 271.438 220.541 257.234L220.209 189.816C220.092 178.642 217.457 170.198 212.3 164.493Z" fill="white"/>
<path d="M256.869 253.71L262.236 180.423H263.578L269.957 253.71H256.869ZM238.921 155.941L225 300H253.012L254.685 276.689H272.132L274.146 300H301.485L287.733 155.941H238.921Z" fill="white"/>
<path d="M345.187 209.271H338.306V182.605H345.025C346.7 182.605 347.99 182.968 348.887 183.694C349.782 184.425 350.4 185.737 350.732 187.642C351.072 189.537 351.234 192.391 351.234 196.192C351.234 204.913 349.219 209.271 345.187 209.271ZM376.267 215.308C378.391 210.728 379.455 204.352 379.455 196.192C379.455 187.247 378.784 179.898 377.44 174.139C376.095 168.378 373.493 163.907 369.631 160.721C365.769 157.536 360.309 155.941 353.251 155.941H308.911V300H338.136V234.262C342.275 234.262 345.133 234.818 346.7 235.937C348.269 237.055 349.057 239.629 349.057 243.654V300H377.271L377.61 245.498C377.61 239.568 376.629 234.872 374.667 231.41C372.705 227.946 369.546 225.765 365.175 224.87C370.443 223.081 374.134 219.897 376.267 215.308Z" fill="white"/>
<path d="M386.139 300H413.614V155.941H386.139V300Z" fill="white"/>
<path d="M452.166 253.71L457.533 180.423H458.875L465.254 253.71H452.166ZM483.03 155.941H434.218L420.297 300H448.309L449.984 276.689H467.429L469.443 300H496.782L483.03 155.941Z" fill="white"/>
<path d="M90.8056 184.133C88.9704 188.964 86.4867 194.561 83.3562 200.923C80.2238 207.294 77.7032 210.74 75.7906 211.282C75.6746 211.311 75.5585 211.328 75.459 211.328C74.9117 211.328 74.5174 210.893 74.2779 210.019C73.6312 207.697 74.3405 203.394 76.4226 197.115C78.4974 190.828 81.1506 184.86 84.3898 179.195C87.6291 173.536 90.3266 170.401 92.4787 169.796C92.7569 169.72 93.0351 169.681 93.3041 169.681C94.1075 169.681 94.8703 170.029 95.5871 170.741C94.2291 174.836 92.6334 179.295 90.8056 184.133ZM142.615 140.419C146.117 134.166 149.064 130.526 151.446 129.513L151.569 129.481C151.608 129.467 151.647 129.459 151.686 129.459C151.862 129.459 151.986 129.598 152.063 129.86C152.618 131.858 150.843 136.827 146.735 144.762C142.624 152.705 138.051 158.457 133.03 162.025C135.913 153.874 139.114 146.674 142.615 140.419ZM172.915 144.251C175.045 139.041 177.312 134.288 179.718 129.984C183.003 124.125 185.795 120.563 188.093 119.311C188.247 119.224 188.402 119.146 188.548 119.085L188.671 119.047C188.71 119.039 188.749 119.032 188.787 119.032C188.964 119.032 189.088 119.163 189.165 119.426C189.458 120.487 189.104 122.368 188.093 125.078C187.199 127.501 185.773 130.589 183.836 134.334C181.87 138.137 179.788 141.449 177.597 144.251C175.237 147.294 172.746 149.74 170.131 151.597C171.034 149.058 171.959 146.613 172.915 144.251ZM176.201 156.243C176.324 156.119 176.455 155.995 176.58 155.871C179.842 152.674 183.096 149.043 186.35 144.963C186.536 144.732 186.72 144.492 186.906 144.251C187.315 143.733 187.707 143.206 188.093 142.664C190.707 139.058 192.929 135.148 194.764 130.937C196.994 125.819 198.158 120.835 198.265 115.965C198.282 115.098 198.195 114.34 198.018 113.698C197.795 112.901 197.386 112.196 196.786 111.584C196.183 110.981 195.612 110.539 195.057 110.26C194.51 109.982 193.677 109.611 192.559 109.146C191.433 108.69 190.63 108.349 190.145 108.14C189.428 107.776 188.741 107.45 188.093 107.173C185.509 106.019 183.466 105.446 181.962 105.446C181.522 105.446 181.13 105.492 180.783 105.594C179.749 105.88 178.871 106.437 178.145 107.241C176.133 109.278 173.441 113.419 170.071 119.681C166.693 125.936 163.314 133.027 159.929 140.931C159.697 141.473 159.467 142.023 159.242 142.572C157.453 146.9 155.927 151.327 154.639 155.871C153.722 159.114 152.935 162.404 152.271 165.748C151.33 170.486 150.89 174.719 150.921 178.491C150.412 179.48 149.896 180.44 149.371 181.363C147.18 185.232 144.844 188.491 142.377 191.139C138.767 195.001 135.559 197.331 132.766 198.113C132.112 198.298 131.517 198.393 130.977 198.393C129.212 198.393 128.055 197.409 127.507 195.45C126.328 191.2 126.852 184.451 129.081 175.184C132.374 172.792 135.712 169.952 139.099 166.669C142.484 163.388 145.87 159.626 149.248 155.391C152.625 151.165 155.433 146.489 157.661 141.372C158.271 139.972 158.796 138.577 159.242 137.199C160.445 133.53 161.086 129.931 161.164 126.393C161.178 125.525 161.094 124.774 160.917 124.133C160.692 123.328 160.283 122.623 159.682 122.019C159.537 121.873 159.389 121.734 159.242 121.601C158.796 121.199 158.37 120.896 157.954 120.687C157.407 120.41 156.566 120.038 155.448 119.581C154.33 119.117 153.528 118.784 153.042 118.575C149.463 116.772 146.742 115.873 144.859 115.873C144.42 115.873 144.026 115.919 143.68 116.021C142.646 116.315 141.767 116.864 141.043 117.669C140.133 118.582 139.092 119.929 137.911 121.71C136.46 123.877 134.819 126.672 132.967 130.108C130.638 134.436 128.302 139.15 125.965 144.251C124.924 146.543 123.876 148.912 122.826 151.359C119.433 159.262 116.88 167.536 115.168 176.182C113.827 182.918 113.48 188.67 114.112 193.469C110.287 200.444 106.685 204.415 103.307 205.36C103.107 205.413 102.898 205.445 102.69 205.445C102.158 205.445 101.61 205.258 101.047 204.895C100.26 204.383 99.6738 203.447 99.2961 202.084C98.9571 200.886 100.623 195.358 104.286 185.519C107.958 175.679 110.488 169.572 111.89 167.188C112.461 166.166 112.592 165.091 112.284 163.968C111.744 162.049 110.278 160.43 107.895 159.114C106.198 158.185 104.625 157.714 103.167 157.714C102.567 157.714 101.995 157.799 101.441 157.954C100.322 158.263 99.4583 159.029 98.8502 160.236C98.4872 161.111 97.9621 162.768 97.2675 165.215C95.6718 162.899 94.0688 161.444 92.44 160.872C89.6946 159.57 87.3969 158.921 85.547 158.921C84.9223 158.921 84.3512 158.999 83.8334 159.145C83.194 159.323 82.2985 159.835 81.158 160.671C79.4076 162.117 77.2794 164.719 74.757 168.496C72.2437 172.267 69.7986 176.563 67.4457 181.37C66.9906 182.299 66.5594 183.244 66.1504 184.204C65.8574 184.66 65.6179 185.139 65.371 185.62C65.1628 186.031 64.9546 186.447 64.7077 186.843C63.6979 188.483 62.48 190.024 61.3763 191.596C59.086 194.862 56.7957 198.128 54.5054 201.389C50.9733 206.436 47.4337 211.481 43.8942 216.529C40.9166 220.771 37.8708 225.347 33.1281 227.77C31.6154 228.543 30.5817 229 30.0271 229.162C29.2864 229.371 28.5696 229.473 27.8897 229.473C26.3788 229.473 25.0135 228.961 23.8103 227.923C22.0599 226.438 20.7498 224.123 19.8783 221.004C18.3582 215.554 18.922 207.627 21.5661 197.207C24.2046 186.797 28.0906 177.105 33.2036 168.156C38.326 159.199 43.2769 154.052 48.0657 152.705C48.2205 152.666 48.3587 152.642 48.4821 152.642C48.8746 152.642 49.1381 152.851 49.2523 153.279C49.4071 153.843 49.3758 154.632 49.1381 155.646C48.9059 156.661 48.0657 158.363 46.6304 160.756C45.1895 163.147 43.9697 165.563 42.9747 168C41.9724 170.44 41.7421 172.622 42.2819 174.542C42.9065 176.787 44.2092 178.683 46.1918 180.248C47.6253 181.37 49.092 181.927 50.6103 181.927C51.2036 181.927 51.7987 181.842 52.3994 181.672C53.7574 181.292 54.8905 180.588 55.8081 179.55C57.8828 177.414 59.8654 173.334 61.754 167.32C63.6445 161.305 64.1991 156.892 63.4197 154.09C62.3013 150.088 59.2334 146.805 54.2198 144.244C53.6026 143.942 52.7089 143.362 51.5352 142.502C50.9954 142.115 50.4021 141.666 49.7461 141.155C47.6567 139.544 45.7128 138.361 43.9163 137.617C42.8292 137.168 41.7568 136.944 40.6844 136.944C39.9824 136.944 39.2804 137.036 38.5802 137.238C35.8035 138.02 32.6417 140.358 29.1169 144.251C28.0758 145.391 27.0108 146.652 25.9163 148.052C21.0649 154.253 16.6391 161.437 12.637 169.596C8.63317 177.762 5.65744 186.541 3.72091 195.938C1.78623 205.336 1.73095 213.318 3.55876 219.889C3.92175 221.165 4.26815 222.281 4.62377 223.218C4.97017 224.154 5.42527 225.021 5.9891 225.811C6.55107 226.601 7.03751 227.243 7.42998 227.738C7.82428 228.234 8.48023 228.807 9.39783 229.457C10.3081 230.108 10.9714 230.564 11.3952 230.834C11.8116 231.106 12.7052 231.609 14.0705 232.353C15.4433 233.087 16.4456 233.668 17.0776 234.093C20.4955 236.161 23.6113 237.315 26.4323 237.553C26.9574 237.6 27.5046 237.624 28.0684 237.624C30.5043 237.624 33.2423 237.198 36.2899 236.338C40.7544 235.084 44.8486 232.639 48.5669 229C52.2833 225.362 55.2296 221.274 57.4056 216.738C58.8465 213.734 60.3113 210.638 61.6306 207.511C61.778 208.75 61.9936 209.933 62.3013 211.056C62.7251 212.582 63.8361 213.843 65.6179 214.849C67.407 215.863 68.695 216.862 69.4891 217.846C71.2248 219.974 73.1226 221.043 75.1973 221.043C75.7906 221.043 76.4005 220.956 77.0252 220.779C80.0543 219.928 83.9182 215.732 88.6075 208.193C90.3192 211.258 92.4013 213.627 94.8556 215.314C96.466 216.421 98.2238 216.978 100.122 216.978C101.109 216.978 102.135 216.832 103.199 216.529C105.99 215.748 109.038 213.1 112.338 208.587C114.049 206.242 115.638 203.649 117.097 200.799C117.143 200.845 117.182 200.893 117.228 200.932C118.4 201.892 120.143 202.898 122.455 203.926C124.762 204.964 126.127 205.598 126.536 205.824C127.677 206.473 128.958 206.799 130.369 206.799C131.347 206.799 132.398 206.636 133.514 206.327C137.102 205.321 140.98 202.65 145.152 198.322C146.609 196.813 148.013 195.103 149.371 193.198C150.458 191.681 151.514 190.041 152.533 188.267C152.973 189.11 153.559 189.861 154.33 190.497C155.501 191.465 157.245 192.463 159.559 193.501C161.864 194.537 163.229 195.164 163.638 195.397C164.781 196.038 166.059 196.364 167.471 196.364C168.458 196.364 169.507 196.208 170.618 195.9C173.07 195.202 175.661 193.739 178.384 191.503C179.648 190.466 180.936 189.266 182.255 187.895C183.967 186.131 185.601 184.08 187.184 181.757C189.458 178.413 191.595 174.496 193.593 170.005C194.201 168.797 194.309 167.475 193.908 166.027C193.414 164.27 192.644 163.388 191.603 163.388C191.409 163.388 191.208 163.417 191 163.48C190.438 163.636 189.913 164.216 189.419 165.222C186.405 171.686 183.088 176.841 179.479 180.712C179.348 180.85 179.217 180.991 179.086 181.122C178.854 181.37 178.614 181.618 178.384 181.849C175.215 185.04 172.385 186.974 169.877 187.686C169.221 187.873 168.62 187.958 168.081 187.958C166.314 187.958 165.158 186.981 164.611 185.015C163.43 180.775 163.955 174.017 166.192 164.758C169.477 162.365 172.816 159.524 176.201 156.243Z" fill="white"/>
</svg>

<svg width="497" height="300" fill="none" xmlns="http://www.w3.org/2000/svg"><path d="M42.572 108.559c0 7.193-3.775 10.789-11.324 10.789l-2.867-.17V77.206h5.406c3.262 0 5.547 1.124 6.834 3.364 1.298 2.256 1.95 5.565 1.95 9.952v18.037Zm-14.19-86.307h6.08c4.165 0 6.245 2.357 6.245 7.076v14.494c0 3.372-.45 5.985-1.351 7.845-.9 1.852-2.587 2.776-5.064 2.776h-5.91V22.252Zm26.345 41.972c9.911-2.698 14.866-10.961 14.866-24.781v-6.41c0-11.68-2.392-20.113-7.176-25.283C57.633 2.58 49.943 0 39.356 0H0v144.802h21.857c5.53-6.92 10.508-10.935 15.207-12.254a13.38 13.38 0 0 1 3.582-.489c1.787 0 3.581.365 5.327 1.086 2.285.938 4.614 2.333 7.123 4.263 2.625 2.031 3.472 2.464 3.557 2.503l.048.024.037.023c.22.109.429.218.639.342 2.88-1.876 5.203-4.341 6.98-7.387 4.616-7.922 6.93-19.58 6.93-34.972 0-9.44-1.243-17.03-3.72-22.758-2.478-5.735-6.757-9.387-12.84-10.959Zm23.986 80.578h41.299c2.696-6.093 5.417-11.711 8.099-16.742 2.728-5.108 4.99-8.828 6.962-11.41h-27.274V83.438h26.931V56.133h-26.931V27.98h28.092V0H78.713v144.802Zm80.24-29.006c.441.202.819.38 1.142.543 1.089.549 2.107 1.316 3.142 2.364.269.27.516.557.756.851.347-.666.695-1.318 1.042-1.96 3.659-6.797 6.492-11.12 8.915-13.608a10.808 10.808 0 0 1 5.11-3.138 9.67 9.67 0 0 1 2.632-.348c1.768 0 3.775.418 6.137 1.294V27.803h17.121V0h-63.118v27.803h17.121v87.993Zm67.574 29.006h28.876V27.811h17.122V0h-63.119v27.81h17.121v116.992Zm112.087-28.152h-30.119V83.438h27.111V56.13h-27.111V27.98h28.28V0h-57.567v144.802h59.406V116.65Zm43.702-63.045h-6.881V26.802h6.718c1.676 0 2.966.364 3.862 1.094.895.735 1.514 2.054 1.846 3.961.339 1.913.502 4.782.502 8.594 0 8.767-2.015 13.154-6.047 13.154Zm31.08 6.068c2.123-4.61 3.188-11.013 3.188-19.222 0-8.983-.672-16.377-2.015-22.166-1.345-5.783-3.947-10.278-7.809-13.48C402.898 1.597 397.438 0 390.38 0h-44.34v144.802h29.225V78.718c4.139 0 6.997.566 8.564 1.69 1.568 1.124 2.356 3.704 2.356 7.75v56.644h28.214l.34-54.792c0-5.952-.982-10.672-2.943-14.152-1.962-3.489-5.121-5.674-9.492-6.581 5.268-1.79 8.958-5 11.092-9.604ZM212.3 164.493c-5.157-5.699-12.886-8.552-23.2-8.552h-5.024a100.86 100.86 0 0 1-4.166 4.248c-3.009 2.9-6.016 5.499-8.977 7.751-1.669 7.456-1.754 11.713-1.475 14.049 1.259-.639 3.239-2.021 6.03-4.996 3.216-3.418 6.245-8.136 9.013-14.028l.022-.06.032-.054c1.206-2.422 2.876-3.941 4.97-4.526a7.595 7.595 0 0 1 2.065-.293c5.264.007 7.089 5.035 7.521 6.577.752 2.675.534 5.343-.624 7.71-2.359 5.252-4.948 9.832-7.739 13.696.354 1.588.541 3.747.541 6.485v74.296c0 5.143-2.636 7.712-7.901 7.712h-5.048v-76.402c-2.133 1.356-4.237 2.321-6.324 2.907-1.585.439-3.138.664-4.614.664-2.351 0-4.538-.557-6.472-1.644-.123-.07-.764-.385-3.664-1.68a38.33 38.33 0 0 1-3.749-1.89 49.352 49.352 0 0 1-4.26 5.166V300h38.838c11.651 0 20.007-3.578 25.047-10.733 5.048-7.156 7.506-17.829 7.399-32.033l-.332-67.418c-.117-11.174-2.752-19.618-7.909-25.323Zm44.569 89.217 5.367-73.287h1.342l6.379 73.287h-13.088Zm-17.948-97.769L225 300h28.012l1.673-23.311h17.447L274.146 300h27.339l-13.752-144.059h-48.812Zm106.266 53.33h-6.881v-26.666h6.719c1.675 0 2.965.363 3.862 1.089.895.731 1.513 2.043 1.845 3.948.34 1.895.502 4.749.502 8.55 0 8.721-2.015 13.079-6.047 13.079Zm31.08 6.037c2.124-4.58 3.188-10.956 3.188-19.116 0-8.945-.671-16.294-2.015-22.053-1.345-5.761-3.947-10.232-7.809-13.418-3.862-3.185-9.322-4.78-16.38-4.78h-44.34V300h29.225v-65.738c4.139 0 6.997.556 8.564 1.675 1.569 1.118 2.357 3.692 2.357 7.717V300h28.214l.339-54.502c0-5.93-.981-10.626-2.943-14.088-1.962-3.464-5.121-5.645-9.492-6.54 5.268-1.789 8.959-4.973 11.092-9.562ZM386.139 300h27.475V155.941h-27.475V300Zm66.027-46.29 5.367-73.287h1.342l6.379 73.287h-13.088Zm30.864-97.769h-48.812L420.297 300h28.012l1.675-23.311h17.445L469.443 300h27.339L483.03 155.941Z" fill="#fff"/><path d="M90.806 184.133c-1.836 4.831-4.32 10.428-7.45 16.79-3.132 6.371-5.653 9.817-7.565 10.359a1.414 1.414 0 0 1-.332.046c-.547 0-.942-.435-1.181-1.309-.647-2.322.063-6.625 2.145-12.904a97.613 97.613 0 0 1 7.967-17.92c3.24-5.659 5.937-8.794 8.089-9.399.278-.076.556-.115.825-.115.803 0 1.566.348 2.283 1.06-1.358 4.095-2.954 8.554-4.781 13.392Zm51.809-43.714c3.502-6.253 6.449-9.893 8.831-10.906l.123-.032a.346.346 0 0 1 .117-.022c.176 0 .3.139.377.401.555 1.998-1.22 6.967-5.328 14.902-4.111 7.943-8.684 13.695-13.705 17.263 2.883-8.151 6.084-15.351 9.585-21.606Zm30.3 3.832c2.13-5.21 4.397-9.963 6.803-14.267 3.285-5.859 6.077-9.421 8.375-10.673.154-.087.309-.165.455-.226l.123-.038a.586.586 0 0 1 .116-.015c.177 0 .301.131.378.394.293 1.061-.061 2.942-1.072 5.652-.894 2.423-2.32 5.511-4.257 9.256-1.966 3.803-4.048 7.115-6.239 9.917-2.36 3.043-4.851 5.489-7.466 7.346a183.19 183.19 0 0 1 2.784-7.346Zm3.286 11.992c.123-.124.254-.248.379-.372 3.262-3.197 6.516-6.828 9.77-10.908.186-.231.37-.471.556-.712.409-.518.801-1.045 1.187-1.587 2.614-3.606 4.836-7.516 6.671-11.727 2.23-5.118 3.394-10.102 3.501-14.972.017-.867-.07-1.625-.247-2.267a4.842 4.842 0 0 0-1.232-2.114c-.603-.603-1.174-1.045-1.729-1.324-.547-.278-1.38-.649-2.498-1.114a117.955 117.955 0 0 1-2.414-1.006 34.774 34.774 0 0 0-2.052-.967c-2.584-1.154-4.627-1.727-6.131-1.727-.44 0-.832.046-1.179.148a5.464 5.464 0 0 0-2.638 1.647c-2.012 2.037-4.704 6.178-8.074 12.44-3.378 6.255-6.757 13.346-10.142 21.25-.232.542-.462 1.092-.687 1.641a121.436 121.436 0 0 0-4.603 13.299 127.611 127.611 0 0 0-2.368 9.877c-.941 4.738-1.381 8.971-1.35 12.743a78.153 78.153 0 0 1-1.55 2.872c-2.191 3.869-4.527 7.128-6.994 9.776-3.61 3.862-6.818 6.192-9.611 6.974-.654.185-1.249.28-1.789.28-1.765 0-2.922-.984-3.47-2.943-1.179-4.25-.655-10.999 1.574-20.266 3.293-2.392 6.631-5.232 10.018-8.515 3.385-3.281 6.771-7.043 10.149-11.278 3.377-4.226 6.185-8.902 8.413-14.019.61-1.4 1.135-2.795 1.581-4.173 1.203-3.669 1.844-7.268 1.922-10.806.014-.868-.07-1.619-.247-2.26a4.77 4.77 0 0 0-1.235-2.114 11.366 11.366 0 0 0-.44-.418c-.446-.402-.872-.705-1.288-.914-.547-.277-1.388-.649-2.506-1.106-1.118-.464-1.92-.797-2.406-1.006-3.579-1.803-6.3-2.702-8.183-2.702-.439 0-.833.046-1.179.148a5.505 5.505 0 0 0-2.637 1.648c-.91.913-1.951 2.26-3.132 4.041-1.451 2.167-3.092 4.962-4.944 8.398-2.329 4.328-4.665 9.042-7.002 14.143a370.008 370.008 0 0 0-3.139 7.108c-3.393 7.903-5.946 16.177-7.658 24.823-1.341 6.736-1.688 12.488-1.056 17.287-3.825 6.975-7.427 10.946-10.805 11.891-.2.053-.409.085-.617.085-.532 0-1.08-.187-1.643-.55-.787-.512-1.373-1.448-1.75-2.811-.34-1.198 1.326-6.726 4.989-16.565 3.672-9.84 6.202-15.947 7.604-18.331.571-1.022.702-2.097.394-3.22-.54-1.919-2.006-3.538-4.389-4.854-1.697-.929-3.27-1.4-4.728-1.4-.6 0-1.172.085-1.726.24-1.119.309-1.983 1.075-2.59 2.282-.364.875-.889 2.532-1.584 4.979-1.595-2.316-3.198-3.771-4.827-4.343-2.745-1.302-5.043-1.951-6.893-1.951a6.3 6.3 0 0 0-1.714.224c-.639.178-1.534.69-2.675 1.526-1.75 1.446-3.879 4.048-6.401 7.825-2.513 3.771-4.958 8.067-7.311 12.874a59.054 59.054 0 0 0-1.296 2.834c-.293.456-.532.935-.779 1.416-.208.411-.416.827-.663 1.223-1.01 1.64-2.228 3.181-3.332 4.753-2.29 3.266-4.58 6.532-6.87 9.793-3.533 5.047-7.072 10.092-10.612 15.14-2.977 4.242-6.023 8.818-10.766 11.241-1.513.773-2.546 1.23-3.1 1.392a7.88 7.88 0 0 1-2.138.311c-1.511 0-2.877-.512-4.08-1.55-1.75-1.485-3.06-3.8-3.932-6.919-1.52-5.45-.956-13.377 1.688-23.797 2.639-10.41 6.525-20.102 11.638-29.051 5.122-8.957 10.073-14.104 14.862-15.451.154-.039.293-.063.416-.063.393 0 .656.209.77.637.155.564.124 1.353-.114 2.367-.232 1.015-1.072 2.717-2.508 5.11A52.47 52.47 0 0 0 42.975 168c-1.003 2.44-1.233 4.622-.693 6.542.625 2.245 1.927 4.141 3.91 5.706 1.433 1.122 2.9 1.679 4.418 1.679a6.54 6.54 0 0 0 1.79-.255 6.943 6.943 0 0 0 3.408-2.122c2.075-2.136 4.057-6.216 5.946-12.23 1.89-6.015 2.445-10.428 1.666-13.23-1.119-4.002-4.187-7.285-9.2-9.846-.617-.302-1.511-.882-2.685-1.742a57.135 57.135 0 0 1-1.789-1.347c-2.09-1.611-4.033-2.794-5.83-3.538-1.087-.449-2.16-.673-3.232-.673-.702 0-1.404.092-2.104.294-2.776.782-5.938 3.12-9.463 7.013a64.944 64.944 0 0 0-3.2 3.801c-4.852 6.201-9.278 13.385-13.28 21.544-4.004 8.166-6.98 16.945-8.916 26.342-1.935 9.398-1.99 17.38-.162 23.951.363 1.276.71 2.392 1.065 3.329a11.04 11.04 0 0 0 1.365 2.593c.562.79 1.049 1.432 1.441 1.927.394.496 1.05 1.069 1.968 1.719.91.651 1.573 1.107 1.997 1.377.417.272 1.31.775 2.675 1.519 1.373.734 2.376 1.315 3.008 1.74 3.418 2.068 6.533 3.222 9.354 3.46.525.047 1.073.071 1.636.071 2.436 0 5.174-.426 8.222-1.286 4.464-1.254 8.559-3.699 12.277-7.338 3.716-3.638 6.663-7.726 8.839-12.262 1.44-3.004 2.905-6.1 4.225-9.227.147 1.239.363 2.422.67 3.545.424 1.526 1.535 2.787 3.317 3.793 1.789 1.014 3.077 2.013 3.871 2.997 1.736 2.128 3.634 3.197 5.708 3.197a6.69 6.69 0 0 0 1.828-.264c3.03-.851 6.893-5.047 11.582-12.586 1.712 3.065 3.794 5.434 6.249 7.121 1.61 1.107 3.368 1.664 5.266 1.664.987 0 2.013-.146 3.077-.449 2.791-.781 5.839-3.429 9.139-7.942 1.711-2.345 3.3-4.938 4.759-7.788.046.046.085.094.131.133 1.172.96 2.915 1.966 5.227 2.994 2.307 1.038 3.672 1.672 4.081 1.898 1.141.649 2.422.975 3.833.975.978 0 2.029-.163 3.145-.472 3.588-1.006 7.466-3.677 11.638-8.005 1.457-1.509 2.861-3.219 4.219-5.124a58.37 58.37 0 0 0 3.162-4.931 7.125 7.125 0 0 0 1.797 2.23c1.171.968 2.915 1.966 5.229 3.004 2.305 1.036 3.67 1.663 4.079 1.896 1.143.641 2.421.967 3.833.967.987 0 2.036-.156 3.147-.464 2.452-.698 5.043-2.161 7.766-4.397a45.104 45.104 0 0 0 3.871-3.608c1.712-1.764 3.346-3.815 4.929-6.138 2.274-3.344 4.411-7.261 6.409-11.752.608-1.208.716-2.53.315-3.978-.494-1.757-1.264-2.639-2.305-2.639a2.07 2.07 0 0 0-.603.092c-.562.156-1.087.736-1.581 1.742-3.014 6.464-6.331 11.619-9.94 15.49-.131.138-.262.279-.393.41-.232.248-.472.496-.702.727-3.169 3.191-5.999 5.125-8.507 5.837a6.58 6.58 0 0 1-1.796.272c-1.767 0-2.923-.977-3.47-2.943-1.181-4.24-.656-10.998 1.581-20.257 3.285-2.393 6.624-5.234 10.009-8.515Z" fill="#fff"/></svg>
